X: 8
T: Leitrim Fancy, The
Z: tziguk
S: https://thesession.org/tunes/467#setting53408
R: jig
M: 6/8
L: 1/8
K: Dmaj
|:GBG FAF|E2B BAB|GBG FAF|D2A AFD|
GBG FAF|E2B BAB|GAB dBG|ABG FED:|
|:G2B dBd|edB dBA|G2B dBG|ABG FED|
G2B dBd|edB def|gfe dBG|ABG FED:|

%-------------------- TUNE SEPARATOR --------------------%

